.svelte-kit/output/client/library/social-dribbble.svg

<svg width="48" height="48" viewBox="0 0 48 48" fill="none" xmlns="http://www.w3.org/2000/svg">
<path d="M24 43C34.4934 43 43 34.4934 43 24C43 13.5066 34.4934 5 24 5C13.5066 5 5 13.5066 5 24C5 34.4934 13.5066 43 24 43Z" fill="#EA4C89"/>
<path fill-rule="evenodd" clip-rule="evenodd" d="M24 5C13.5108 5 5 13.5108 5 24C5 34.4892 13.5108 43 24 43C34.4685 43 43 34.4892 43 24C43 13.5108 34.4685 5 24 5ZM36.5499 13.7581C38.8167 16.5195 40.1768 20.0434 40.218 23.8557C39.6822 23.7528 34.3242 22.6605 28.9252 23.3406C28.8015 23.0727 28.6985 22.7841 28.5748 22.4957C28.2451 21.7126 27.8742 20.9089 27.5032 20.1464C33.4793 17.7148 36.1995 14.2115 36.5499 13.7581ZM24 7.80261C28.1215 7.80261 31.8926 9.34816 34.7571 11.8829C34.4685 12.295 32.0162 15.5716 26.2462 17.7353C23.5878 12.8514 20.641 8.85358 20.1877 8.23536C21.4034 7.94685 22.6812 7.80261 24 7.80261ZM17.0966 9.32755C17.5293 9.90455 20.4143 13.923 23.1139 18.7039C15.5304 20.7234 8.83298 20.6822 8.11171 20.6822C9.16269 15.654 12.5629 11.4707 17.0966 9.32755ZM7.76139 24.0207C7.76139 23.8557 7.76139 23.6909 7.76139 23.5261C8.46204 23.5466 16.3341 23.6497 24.4327 21.218C24.9068 22.1247 25.3395 23.052 25.7517 23.9793C25.5455 24.0412 25.3188 24.1031 25.1128 24.1648C16.7462 26.8644 12.295 34.2418 11.9241 34.86C9.34815 31.9957 7.76139 28.1833 7.76139 24.0207ZM24 40.2386C20.2494 40.2386 16.7874 38.961 14.0466 36.8178C14.3351 36.2202 17.6323 29.8731 26.782 26.679C26.8232 26.6583 26.8438 26.6583 26.885 26.6378C29.1724 32.552 30.0998 37.5184 30.3471 38.9403C28.3894 39.7852 26.2462 40.2386 24 40.2386ZM33.0466 37.4566C32.8818 36.4674 32.0162 31.7278 29.8937 25.8958C34.9838 25.0921 39.4349 26.4111 39.9913 26.5966C39.2907 31.1096 36.6941 35.0043 33.0466 37.4566Z" fill="#C32361"/>
</svg>

<svg width="48" height="48" fill="none" xmlns="http://www.w3.org/2000/svg"><path d="M24 43c10.493 0 19-8.507 19-19S34.493 5 24 5 5 13.507 5 24s8.507 19 19 19Z" fill="#EA4C89"/><path fill-rule="evenodd" clip-rule="evenodd" d="M24 5C13.51 5 5 13.51 5 24s8.51 19 19 19c10.468 0 19-8.51 19-19S34.468 5 24 5Zm12.55 8.758a16.154 16.154 0 0 1 3.668 10.098c-.536-.103-5.894-1.196-11.293-.515-.123-.268-.227-.557-.35-.845-.33-.783-.7-1.587-1.072-2.35 5.976-2.431 8.697-5.935 9.047-6.388ZM24 7.803c4.122 0 7.893 1.545 10.757 4.08-.288.412-2.74 3.689-8.51 5.852-2.66-4.884-5.606-8.881-6.06-9.5A16.503 16.503 0 0 1 24 7.803Zm-6.903 1.525c.432.577 3.317 4.595 6.017 9.376-7.584 2.02-14.281 1.978-15.002 1.978 1.05-5.028 4.45-9.211 8.985-11.354ZM7.76 24.02v-.495c.701.02 8.573.124 16.672-2.308.474.907.907 1.834 1.319 2.761-.206.062-.433.124-.64.186-8.366 2.7-12.817 10.077-13.188 10.695a16.19 16.19 0 0 1-4.163-10.84ZM24 40.239c-3.75 0-7.213-1.278-9.953-3.421.288-.598 3.585-6.945 12.735-10.139.041-.02.062-.02.103-.041 2.287 5.914 3.215 10.88 3.462 12.302A15.961 15.961 0 0 1 24 40.24Zm9.047-2.782c-.165-.99-1.03-5.73-3.153-11.561 5.09-.804 9.54.515 10.097.7-.7 4.514-3.297 8.408-6.944 10.86Z" fill="#C32361"/></svg>
